!!!OTL: Der falsche Troester.
!!!OTL-incipit: WEINE NUR NICHT
!!!COM: Volksweise
!!!ARE: Europa, Mitteleuropa, Deutschland
!!!SCT: F0095
!!!TXL: @@DE
!!!YEM: Copyright 1995, estate of Helmut Schaffrath.
**kern	**text
*ICvox	*
*M3/8	*
*k[f#c#]	*
*D:	*
=1	=1
!LO:TX:a:t=Munter.	!
!LO:TX:a:t=P:only higher voice encoded:problem	!
{4a	1._Weine,
8f#'	.
=2	=2
4dd/	wei-
8a'	-ne,
=3	=3
16aq	.
8g	wei-
16.gL	-ne
32f#J	.
16.gL	nur
32aJ	.
=4	=4
8f#	nicht,
8r	.
8r}	.
=5	=5
{8b/'	ich
8a'	will
8g'	dich
=6	=6
4f#	lie-
8a'	-ben,
=7	=7
8g'	doch
8g'	heute
8f#'	.
=8	=8
8e'	nicht
16r}	.
{16a	ich
16a	will
16a	dich
=9	=9
8a	1._eh-
16e	-ren,
16cc#	ich
16cc#	will
16cc#	dich
=10	=10
8cc#/	eh-
8a	-ren,
8r	.
=11	=11
16cc'q/	.
8b/	ſo
8a	viel
8g#	ich
=12	=12
8a	kann,
8r}	.
{16a	aber's
16a	.
=13	=13
4a	Nehmen,
8f#	.
=14	=14
4dd/	's_Nehmen
8a	.
=15	=15
8g	ſteht
16.gL	mir
32f#J	.
16.gL	nicht
32aJ	.
=16	=16
8f#	an,
8r}	.
{16a	a-
16a	-ber
=17	=17
4dd	1._'s_Nehmen,
8a'	.
=18	=18
4ff#	's_Nehmen
8dd'	.
=19	=19
16aL	ſteht
16gJ	.
8f#	mir
8e	nicht
=20	=20
!LO:TX:a:t=P:accompaniment ommitted:problem	!
8d	an.
8r	.
8r}	.
==	==
!!!AGN: Liebes - Lied, Untreue
!!!ONB: ESAC (Essen Associative Code) Database: FINK
!!!AMT: simple triple
!!!AIN: vox
!!!EED: Helmut Schaffrath
!!!EEV: 1.0
!!!GTL: Volkslieder
!!Text: Volkslied
!!!source: Musikalischer Hausschatz der Deutschen. Eine Sammlung von über 1000 Liedern und Gesängen mit Singstimmen und Klavierbegleitung. Leipzig, Litterarisches Verlags-Haus.
!!!page: 58
!!!URL-scan: https://www.digitale-sammlungen.de/en/view/bsb11144622?page=66,67
!!!ENC: Anna Maria Matuszewska
!!!EEV: 2024/07/25
*-	*-
